src/img/iconos/icon2LM.svg

<svg width="380" height="380" viewBox="0 0 380 380" fill="none" xmlns="http://www.w3.org/2000/svg">
<path d="M16.3008 290.31V301.59C16.3008 311.35 19.0208 314.09 28.6708 314.09H351.261C352.631 314.09 354.011 314.15 355.371 314.03C359.311 313.66 362.941 311.03 363.281 307.23C363.771 301.61 363.401 295.91 363.401 290.31H16.3008ZM69.0008 308.09C63.3908 308.09 57.7808 308.09 52.1608 308.09C46.5408 308.09 41.1608 308.09 35.6908 308.09C31.0208 308.09 28.2708 305.76 28.3308 302.02C28.3908 298.28 31.0408 296.15 35.5108 296.13C46.7308 296.13 57.9575 296.13 69.1908 296.13C73.5508 296.13 76.1908 298.56 76.1908 302.19C76.1908 305.82 73.4108 308.06 69.0008 308.09ZM93.7708 308.09C93.0208 308.09 92.2708 308.09 91.5308 308.09V308C90.1634 308.12 88.7881 308.12 87.4208 308C84.2008 307.41 82.2608 305.4 82.2808 302.08C82.3008 298.76 84.2808 296.71 87.4908 296.24C89.6008 296.023 91.726 295.996 93.8408 296.16C97.6608 296.31 100.171 298.76 100.141 302.16C100.111 305.56 97.5708 307.89 93.7508 308.09H93.7708Z" fill="#F24E1E"/>
<path d="M27.5303 326.07H141C139.64 334.28 138.34 342.07 137 350.07C128.77 350.07 120.92 350.02 113.07 350.07C108.41 350.07 106.25 352.32 106.18 357C106.12 360.58 106.18 364.16 106.18 368H102.46C95.7203 368 88.9803 367.91 82.2503 368.05C81.4646 368.027 80.6823 368.163 79.9506 368.45C79.2188 368.737 78.5527 369.169 77.9922 369.721C77.4317 370.272 76.9885 370.93 76.6892 371.657C76.3898 372.384 76.2405 373.164 76.2503 373.95C76.2503 377.22 78.6303 379.66 82.1803 379.95C83.0503 380.02 83.9303 379.95 84.8003 379.95H295.16C296.16 380 297.161 380 298.16 379.95C299.671 379.854 301.09 379.191 302.132 378.093C303.174 376.995 303.763 375.544 303.78 374.03C303.8 372.512 303.231 371.045 302.193 369.937C301.154 368.83 299.727 368.167 298.21 368.09C295.85 367.9 293.47 368.02 291.1 368.02H273.85C273.85 364.63 273.85 361.77 273.85 358.91C273.85 351.73 272.2 350.05 265.12 350.05H243C241.66 341.93 240.39 334.22 239 326.05H352.42C367.14 326.05 375.67 317.55 375.68 302.86V85.74C375.68 71 367.19 62.5 352.48 62.5H27.5503C12.8203 62.5 4.32031 71 4.32031 85.7V302.84C4.32031 317.56 12.8203 326.07 27.5303 326.07ZM261.7 362.26V367.81H118.28V362.26H261.7ZM149.22 349.86C150.53 341.92 151.8 334.22 153.13 326.19H226.85C228.16 334.04 229.45 341.84 230.78 349.86H149.22ZM363.28 307.23C362.94 311.06 359.28 313.66 355.37 314.03C354.01 314.15 352.63 314.09 351.26 314.09H28.6703C19.0203 314.09 16.3003 311.35 16.3003 301.59V290.31H363.4C363.4 295.91 363.77 301.61 363.28 307.23ZM28.0003 74.48H352.13C360.57 74.48 363.7 77.57 363.7 85.91V277.85H16.3003V86.14C16.3003 77.49 19.3303 74.48 28.0003 74.48Z" fill="#333333"/>
<path d="M141 265.19C162.317 268.639 184.152 263.956 202.18 252.07C227.4 235.79 240.86 212.19 243.9 182.31C248 182.31 251.9 182.12 255.7 182.41C256.424 182.512 257.119 182.766 257.737 183.156C258.356 183.545 258.885 184.061 259.29 184.67C262.29 190.24 265.14 195.95 267.87 201.67C268.439 203.126 269.46 204.359 270.784 205.19C272.107 206.02 273.663 206.402 275.22 206.28C284.33 206.17 293.44 206.28 302.55 206.23C308.79 206.23 311.35 202.11 308.64 196.5C305.93 190.89 303.33 185.5 300.4 180.14C298.94 177.48 298.77 175.34 300.31 172.59C303.31 167.27 305.89 161.73 308.56 156.24C311.4 150.39 308.88 146.39 302.35 146.35C293.35 146.35 284.35 146.44 275.4 146.3C271.66 146.24 269.4 147.76 267.79 151.1C265.124 156.74 262.324 162.307 259.39 167.8C259.065 168.397 258.617 168.919 258.076 169.33C257.535 169.742 256.913 170.035 256.25 170.19C252.25 170.48 248.25 170.3 243.85 170.3C241.45 144.56 230.95 123.22 211.14 106.98C191.33 90.7401 168.51 84.5201 143 87.1201C100.69 91.4301 65.4905 129.47 64.2305 172.64C62.9105 219.15 95.1805 258.29 141 265.19ZM279.06 194.19C278.561 194.067 278.093 193.839 277.688 193.522C277.283 193.205 276.95 192.805 276.71 192.35C275.02 189.35 273.55 186.16 271.66 182.35C277.22 182.35 282.34 182.35 287.46 182.35C287.9 182.35 288.51 183 288.76 183.49C290.5 186.88 292.17 190.31 294.1 194.21C288.65 194.28 283.83 194.37 279 194.19H279.06ZM276.83 160.1C277.155 159.637 277.574 159.247 278.06 158.958C278.546 158.668 279.088 158.485 279.65 158.42C284.25 158.25 288.85 158.34 294.06 158.34C292.15 162.25 290.5 165.81 288.62 169.25C288.294 169.581 287.902 169.841 287.47 170.013C287.038 170.185 286.575 170.266 286.11 170.25C281.51 170.34 276.9 170.25 271.64 170.25C273.52 166.47 275 163.2 276.79 160.1H276.83ZM151.49 98.4801C197.65 97.2701 229.75 134.25 231.38 170.13H219.84C216.68 146.58 205.01 128.54 183.61 117.48C169.61 110.22 154.61 108.61 139.25 112.09C108.07 119.15 86.6805 147.75 88.2505 180.09C89.7305 210.68 114.25 237.51 144.12 241.46C162.87 243.94 179.82 239.72 194.71 228.07C209.6 216.42 217.55 201.07 219.71 182.44H231.12C231.03 210.08 206.65 250.83 158.43 254.05C115.71 256.9 78.1305 222.91 76.2505 179.97C74.3805 136.55 108.53 99.6101 151.49 98.4801ZM154.87 182.29C157.72 182.35 160.58 182.29 163.49 182.29C162.23 186.16 157.88 188.6 153.14 188.24C150.494 188.005 148 186.898 146.051 185.093C144.101 183.288 142.806 180.887 142.368 178.266C141.93 175.645 142.374 172.953 143.63 170.612C144.886 168.271 146.884 166.413 149.31 165.33C154.64 163.05 160.1 164.67 164.23 170.33C160.62 170.33 157.67 170.27 154.73 170.33C150.65 170.43 148.06 172.84 148.1 176.33C148.14 179.82 150.75 182.2 154.87 182.29ZM154.78 152.45C144.63 152.15 137 156.89 132.49 166.01C131.161 168.873 130.413 171.97 130.289 175.124C130.165 178.278 130.668 181.424 131.768 184.382C132.868 187.341 134.544 190.051 136.699 192.357C138.853 194.663 141.444 196.519 144.32 197.818C147.197 199.116 150.302 199.831 153.457 199.922C156.612 200.012 159.753 199.476 162.699 198.345C165.646 197.213 168.338 195.508 170.621 193.329C172.904 191.15 174.733 188.54 176 185.65C177.07 183.06 178.25 182.15 181.09 182.22C189.79 182.45 198.5 182.3 207.21 182.3C206.59 201.71 188.27 229.55 155 230.17C147.888 230.306 140.818 229.033 134.201 226.422C127.583 223.812 121.547 219.917 116.442 214.963C111.338 210.008 107.265 204.091 104.458 197.554C101.652 191.017 100.168 183.989 100.092 176.875C100.016 169.761 101.35 162.703 104.016 156.108C106.682 149.512 110.628 143.51 115.626 138.447C120.624 133.385 126.575 129.362 133.135 126.611C139.696 123.86 146.736 122.436 153.85 122.42C186.67 122.42 206.32 149.42 207.25 170.32C197.79 170.32 188.33 170.4 178.89 170.19C177.99 170.19 176.89 168.44 176.32 167.28C172 158.07 164.94 152.76 154.78 152.45Z" fill="#333333"/>
<path d="M69.1696 296.14C57.9362 296.087 46.7096 296.087 35.4896 296.14C31.0196 296.14 28.3696 298.39 28.3096 302.03C28.2496 305.67 30.9996 308.08 35.6696 308.1C41.1596 308.1 46.6696 308.1 52.1396 308.1C57.6096 308.1 63.3696 308.1 68.9796 308.1C73.4096 308.1 76.0996 305.82 76.1596 302.21C76.2196 298.6 73.5296 296.15 69.1696 296.14Z" fill="#333333"/>
<path d="M93.8201 296.15C91.7053 295.986 89.5801 296.013 87.4701 296.23C84.2301 296.7 82.2901 298.76 82.2601 302.07C82.2301 305.38 84.1801 307.4 87.4001 307.99C88.7675 308.11 90.1427 308.11 91.5101 307.99V308.05C92.2501 308.05 93.0001 308.05 93.7501 308.05C97.5701 307.85 100.1 305.49 100.12 302.1C100.14 298.71 97.6401 296.3 93.8201 296.15Z" fill="#333333"/>
</svg>

<svg id="Capa_1" data-name="Capa 1" xmlns="http://www.w3.org/2000/svg" viewBox="0 0 380 380"><defs><style>.cls-1{fill:none;}.cls-2{fill:#006c9c;}.cls-3{fill:#333;}</style></defs><path class="cls-1" d="M287.42,182.42c-5.12-.08-10.24,0-15.8,0,1.89,3.79,3.36,6.94,5.05,10a3.64,3.64,0,0,0,2.35,1.84c4.81.18,9.63.09,15,.09-1.93-3.9-3.6-7.33-5.34-10.72C288.47,183.07,287.86,182.43,287.42,182.42Z"/><path class="cls-1" d="M286.07,170.28a3.37,3.37,0,0,0,2.51-1c1.88-3.44,3.53-7,5.44-10.91-5.21,0-9.81-.09-14.41.08a4,4,0,0,0-2.82,1.68c-1.78,3.1-3.27,6.37-5.19,10.22C276.86,170.32,281.47,170.37,286.07,170.28Z"/><path class="cls-1" d="M176.31,167.28c.54,1.16,1.67,2.89,2.57,2.91,9.44.21,18.9.13,28.36.13-.93-20.91-20.58-47.92-53.4-47.9A53.88,53.88,0,1,0,155,230.17c33.27-.62,51.59-28.46,52.21-47.87-8.71,0-17.42.15-26.12-.08-2.84-.07-4,.84-5.09,3.43A23.87,23.87,0,1,1,132.49,166c4.51-9.12,12.14-13.86,22.29-13.56S172,158.07,176.31,167.28Z"/><path class="cls-1" d="M158.46,254.06c48.22-3.22,72.6-44,72.69-71.61H219.74c-2.19,18.62-10.26,34.08-25,45.63S162.87,244,144.12,241.47c-29.88-3.95-54.39-30.78-55.87-61.37-1.57-32.35,19.82-60.95,51-68,15.39-3.48,30.32-1.87,44.36,5.39,21.4,11.06,33.07,29.1,36.23,52.65h11.54c-1.63-35.88-33.73-72.86-79.89-71.65-43,1.13-77.11,38.07-75.21,81.5C78.16,222.92,115.74,256.91,158.46,254.06Z"/><path class="cls-1" d="M154.73,170.34c2.94-.07,5.89,0,9.5,0-4.13-5.65-9.59-7.27-14.92-5a12,12,0,0,0,3.83,22.91c4.74.36,9.09-2.08,10.35-5.95-2.91,0-5.77,0-8.62,0-4.12-.09-6.72-2.4-6.77-5.91S150.65,170.44,154.73,170.34Z"/><path class="cls-2" d="M16.3,290.31v11.28c0,9.76,2.72,12.5,12.37,12.5H351.26c1.37,0,2.75.06,4.11-.06,3.94-.37,7.57-3,7.91-6.8.49-5.62.12-11.32.12-16.92ZM69,308.09c-5.61,0-11.22,0-16.84,0s-11,0-16.47,0c-4.67,0-7.42-2.33-7.36-6.07s2.71-5.87,7.18-5.89q16.83,0,33.68,0c4.36,0,7,2.43,7,6.06S73.41,308.06,69,308.09Zm24.77,0c-.75,0-1.5,0-2.24,0V308a23.46,23.46,0,0,1-4.11,0c-3.22-.59-5.16-2.6-5.14-5.92s2-5.37,5.21-5.84a35.41,35.41,0,0,1,6.35-.08c3.82.15,6.33,2.6,6.3,6S97.57,307.89,93.75,308.09Z"/><path class="cls-3" d="M27.53,326.07H141c-1.36,8.21-2.66,16-4,24-8.23,0-16.08-.05-23.93,0-4.66,0-6.82,2.25-6.89,6.93-.06,3.58,0,7.16,0,11h-3.72c-6.74,0-13.48-.09-20.21.05a5.83,5.83,0,0,0-6,5.9c0,3.27,2.38,5.71,5.93,6,.87.07,1.75,0,2.62,0H295.16a29.79,29.79,0,0,0,3,0,6,6,0,0,0,5.62-5.92,5.87,5.87,0,0,0-5.57-5.94c-2.36-.19-4.74-.07-7.11-.07H273.85c0-3.39,0-6.25,0-9.11,0-7.18-1.65-8.86-8.73-8.86H243c-1.34-8.12-2.61-15.83-4-24H352.42c14.72,0,23.25-8.5,23.26-23.19V85.74c0-14.74-8.49-23.24-23.2-23.24H27.55C12.82,62.5,4.32,71,4.32,85.7V302.84C4.32,317.56,12.82,326.07,27.53,326.07ZM261.7,362.26v5.55H118.28v-5.55Zm-112.48-12.4c1.31-7.94,2.58-15.64,3.91-23.67h73.72c1.31,7.85,2.6,15.65,3.93,23.67Zm214.06-42.63c-.34,3.83-4,6.43-7.91,6.8-1.36.12-2.74.06-4.11.06H28.67c-9.65,0-12.37-2.74-12.37-12.5V290.31H363.4C363.4,295.91,363.77,301.61,363.28,307.23ZM28,74.48H352.13c8.44,0,11.57,3.09,11.57,11.43V277.85H16.3V86.14C16.3,77.49,19.33,74.48,28,74.48Z"/><path class="cls-3" d="M141,265.19a86.15,86.15,0,0,0,61.18-13.12c25.22-16.28,38.68-39.88,41.72-69.76,4.1,0,8-.19,11.8.1a5.18,5.18,0,0,1,3.59,2.26c3,5.57,5.85,11.28,8.58,17a7.28,7.28,0,0,0,7.35,4.61c9.11-.11,18.22,0,27.33-.05,6.24,0,8.8-4.12,6.09-9.73s-5.31-11-8.24-16.36c-1.46-2.66-1.63-4.8-.09-7.55,3-5.32,5.58-10.86,8.25-16.35,2.84-5.85.32-9.85-6.21-9.89-9,0-18,.09-26.95-.05-3.74-.06-6,1.46-7.61,4.8q-4,8.46-8.4,16.7a4.83,4.83,0,0,1-3.14,2.39c-4,.29-8,.11-12.4.11-2.4-25.74-12.9-47.08-32.71-63.32S168.51,84.52,143,87.12c-42.31,4.31-77.51,42.35-78.77,85.52C62.91,219.15,95.18,258.29,141,265.19Zm138.06-71a3.64,3.64,0,0,1-2.35-1.84c-1.69-3-3.16-6.19-5.05-10,5.56,0,10.68,0,15.8,0,.44,0,1.05.65,1.3,1.14,1.74,3.39,3.41,6.82,5.34,10.72C288.65,194.28,283.83,194.37,279,194.19Zm-2.23-34.09a4,4,0,0,1,2.82-1.68c4.6-.17,9.2-.08,14.41-.08-1.91,3.91-3.56,7.47-5.44,10.91a3.37,3.37,0,0,1-2.51,1c-4.6.09-9.21,0-14.47,0C273.52,166.47,275,163.2,276.79,160.1ZM151.49,98.48c46.16-1.21,78.26,35.77,79.89,71.65H219.84c-3.16-23.55-14.83-41.59-36.23-52.65-14-7.26-29-8.87-44.36-5.39-31.18,7.06-52.57,35.66-51,68,1.48,30.59,26,57.42,55.87,61.37,18.75,2.48,35.7-1.74,50.59-13.39s22.84-27,25-45.63h11.41c-.09,27.64-24.47,68.39-72.69,71.61-42.72,2.85-80.3-31.14-82.18-74.08C74.38,136.55,108.53,99.61,151.49,98.48Zm3.38,83.81c2.85.06,5.71,0,8.62,0-1.26,3.87-5.61,6.31-10.35,5.95a12,12,0,0,1-3.83-22.91c5.33-2.28,10.79-.66,14.92,5-3.61,0-6.56-.06-9.5,0-4.08.1-6.67,2.51-6.63,6S150.75,182.2,154.87,182.29Zm-.09-29.84c-10.15-.3-17.78,4.44-22.29,13.56A23.87,23.87,0,1,0,176,185.65c1.07-2.59,2.25-3.5,5.09-3.43,8.7.23,17.41.08,26.12.08-.62,19.41-18.94,47.25-52.21,47.87a53.88,53.88,0,1,1-1.15-107.75c32.82,0,52.47,27,53.4,47.9-9.46,0-18.92.08-28.36-.13-.9,0-2-1.75-2.57-2.91C172,158.07,164.94,152.76,154.78,152.45Z"/><path class="cls-3" d="M69.17,296.14q-16.85-.08-33.68,0c-4.47,0-7.12,2.25-7.18,5.89s2.69,6.05,7.36,6.07c5.49,0,11,0,16.47,0s11.23,0,16.84,0c4.43,0,7.12-2.28,7.18-5.89S73.53,296.15,69.17,296.14Z"/><path class="cls-3" d="M93.82,296.15a35.41,35.41,0,0,0-6.35.08c-3.24.47-5.18,2.53-5.21,5.84s1.92,5.33,5.14,5.92a23.46,23.46,0,0,0,4.11,0v.06c.74,0,1.49,0,2.24,0,3.82-.2,6.35-2.56,6.37-5.95S97.64,296.3,93.82,296.15Z"/></svg>
